packages/icons/src/svg/link.svg

<svg xmlns="http://www.w3.org/2000/svg" viewBox="0 0 16 16"><path d="M16-.00024V6H14V3L5.511,11.77277l-1.2525-1.2525L13,2H10V-.00024ZM12,10v4H2V4H6V2H0V16H14V10Z"/></svg>

<svg xmlns="http://www.w3.org/2000/svg" viewBox="0 0 16 16">
	<path d="M16 0v6h-2V3l-8.489 8.773-1.253-1.253L13 2h-3V0zm-4 10v4H2V4h4V2H0v14h14v-6z"/>
</svg>
